!!!COM: Haydn, Franz Joseph
!!!OPR: String Quartet in C Major
!!!ONM: Opus 50, No. 2
!!!OTL:
!!!OMV: 2
!!!SCT: H III:45
!!!SCA: Thematisch-bibliographisches Werkevererzeichnis (A. van Hoboken)
!!!YOR: Trautwein Edition
!!!EED: Frances Bennion
!!!ENC: Frances Bennion
!!!CDT: 1732/3/31/-1809/5/31/
!!!OCY: Österreich
!!!YEC: Copyright (c) 1994, 2000 Center for Computer Assisted Research in the Humanities
!!!YEM: Rights to all derivative editions reserved.
!!!YEM: Refer to licensing agreement for further details.
!!!YEN: United States of America
**kern	**kern	**kern	**kern
*k[b-]	*k[b-]	*k[b-]	*k[b-]
*F:	*F:	*F:	*F:
*clefG	*clefG	*clefC3	*clefF4
*M4/4	*M4/4	*M4/4	*M4/4
*tb64	*tb64	*tb64	*tb64
=0-	=0-	=0-	=0-
2.r	2.r	2.r	2.r
4r	4c	4r	4r
=1	=1	=1	=1
8c	2.f	8A	8F
8r	.	8r	8r
8c	.	8A	8F
8r	.	8r	8r
8c	.	8A	8F
8r	.	8r	8r
8e	8.g	8B-	8F
8r	.	8r	8r
.	16a	.	.
=2	=2	=2	=2
8f	4f	8A	8F
8r	.	8r	8r
8c	4.r	8A	8F
8r	.	8r	8r
8A	.	8F	8F
4.r	8c	4.r	4.r
.	8f	.	.
.	8a	.	.
=3	=3	=3	=3
4r	[2cc	4r	4r
8c	.	8A	8F
8r	.	8r	8r
8f	8cc]	8d	8F
8r	8b	8r	8r
8g	8.b-	8e	8F
8r	.	8r	8r
.	16cc	.	.
=4	=4	=4	=4
8a	4a	8f	8F
8r	.	8r	8r
8c	4.r	8A	8F
8r	.	8r	8r
8A	.	8F	8F
4.r	8f	4.r	4.r
.	8a	.	.
.	8cc	.	.
=5	=5	=5	=5
4r	8cc#	4r	4r
.	16ee	.	.
.	16dd	.	.
8d	[4dd	8B-	8F
8r	.	8r	8r
8d	16dd]	8B-	8F
.	16f	.	.
8r	16b-	8r	8r
.	16dd	.	.
8d	8ff	8B-	8F
8r	8dd	8r	8r
=6	=6	=6	=6
4r	16b	4r	4r
.	16cc	.	.
.	16dd	.	.
.	16cc	.	.
8c	[4cc	8A	8F
8r	.	8r	8r
8c	16cc]	8A	8F
.	16cc	.	.
8r	16b	8r	8r
.	16cc	.	.
8f	8cc	8F	8AA
8r	16b-	8r	8r
.	16a	.	.
=7	=7	=7	=7
8d	8g	8G	8BB-
8r	4dd	8r	8r
8g	.	8B-	8BB-
8r	32cc	8r	8r
.	32b-	.	.
.	32a	.	.
.	32g	.	.
8f	4f	8A	8C
8r	.	8r	8r
8e	16.g	8B-	8C
.	32f	.	.
8r	16.g	8r	8r
.	32a	.	.
=8	=8	=8	=8
8f	4f	8A	4F
2r	.	8r	.
.	16.c	16.A	2.r
.	32d	32B-	.
.	16.B-	16.G	.
.	32c	32A	.
.	8A	8F	.
8r	4.r	4.r	.
4cc	.	.	.
=9	=9	=9	=9
2.ff	4A	4A	4F
.	4B	4A-	4D
.	4c	4A	2C
8.gg	4e	4B-	.
16aa	.	.	.
=10	=10	=10	=10
4ff	8f	8A	8F
.	8r	8r	8r
4.r	8c	8A	8FF
.	8r	8r	8r
.	8A	8F	4FF
8cc	4.r	4.r	.
8ff	.	.	4r
8aa	.	.	.
=11	=11	=11	=11
[2ccc	4r	4r	4r
.	8c	8A	8F
.	8r	8r	8r
8ccc]	8f	8d	8F
8bb	8r	8r	8r
8.bb-	8g	8e	8F
.	8r	8r	8r
16ccc	.	.	.
=12	=12	=12	=12
4aa	8a	8f	4F
.	8r	8r	.
4.r	8c	8A	2.r
.	8r	8r	.
.	8A	8F	.
8ff	4.r	4.r	.
8aa	.	.	.
8ccc	.	.	.
=13	=13	=13	=13
8ccc#	4r	4r	4r
16eee	.	.	.
16ddd	.	.	.
4ddd	8b-	8d	8F
.	8r	8r	8r
32ff	8b-	8d	8F
32gg-	.	.	.
32gg	.	.	.
32aa-	.	.	.
32aa	8r	8r	8r
32bb-	.	.	.
32bb	.	.	.
32ccc	.	.	.
32ccc#	8b-	8d	8F
32ddd	.	.	.
32eee-	.	.	.
32eee	.	.	.
16fff	8r	8r	8r
16ddd	.	.	.
=14	=14	=14	=14
16bb	4r	4r	4r
16ccc	.	.	.
16ddd	.	.	.
16ccc	.	.	.
4ccc	8a	8c	8F
.	8r	8r	8r
32bb	8f	8c	8A
32ccc	.	.	.
32bb	.	.	.
32ccc	.	.	.
32bb	8r	8r	8r
32ccc	.	.	.
32bb	.	.	.
32ccc	.	.	.
8ccc	8f	8c	8A
16bb-	8r	8r	8r
16aa	.	.	.
=15	=15	=15	=15
16gg	4d	4d	4B-
16ddd	.	.	.
16ccc#	.	.	.
16ccc	.	.	.
16bb	4r	4r	4r
16bb-	.	.	.
16aa	.	.	.
32bb-	.	.	.
32gg	.	.	.
4ff	8a	8c	8c
.	8r	8r	8r
16.gg	8b-	8E	8C
32ff	.	.	.
16.gg	8r	8r	8r
32aa	.	.	.
=16	=16	=16	=16
4ff	8a	8F	4F
.	8r	8r	.
2r	16.c	16.A	2.r
.	32d	32B-	.
.	16.B-	16.G	.
.	32c	32A	.
.	8A	8F	.
.	4.r	4.r	.
4cc	.	.	.
=17	=17	=17	=17
2.aa	8cc	8a	8f
.	8r	8r	8r
.	8cc	8a	8f
.	8r	8r	8r
.	8cc#	8g	8e
.	8r	8r	8r
8.gg	8cc#	8a	8e
.	8r	8r	8r
16aa	.	.	.
=18	=18	=18	=18
2ff	8dd	8a	8d
.	8r	8r	8r
.	8a	8f	8d
.	8r	8r	8r
4r	8a	8f	8c
.	8r	8r	8r
4ff	8a	8f	8c
.	8r	8r	8r
=19	=19	=19	=19
8A-	8f	8d	8B
8G	8r	8r	8r
[4fff	8f	8d	8B
.	8r	8r	8r
16fff]	8g	8d	8B
16eee	.	.	.
16ddd	8r	8r	8r
16ccc	.	.	.
16bb	8g	8d	8B
16aa	.	.	.
16gg	8r	8r	8r
16ff	.	.	.
=20	=20	=20	=20
4ff	8g	8c	8c
.	8r	8r	8r
4ee	8g	8c	8c
.	8r	8r	8r
8r	8cc	8c	8E
8gg	8r	8r	8r
8gg	8cc	8c	8E
8ccc	8r	8r	8r
=21	=21	=21	=21
8gg#	8cc	8c	8F
16bb	8r	8r	8r
16aa	.	.	.
4.aa	8cc#	8e	8F
.	8r	8r	8r
.	8dd	8f	8F
16gg	8r	8r	8r
16ff	.	.	.
16ee	8cc	8a	8F#
16dd	.	.	.
16ee	8r	8r	8r
16cc	.	.	.
=22	=22	=22	=22
[1gg	8b	8d	8G
.	4.r	4.r	8r
.	.	.	8GG
.	.	.	8r
.	4..cc	2g	4..e
.	16dd	.	16f
=23	=23	=23	=23
1gg_	8b	8f	8d
.	8b	8f	8d
.	8cc	8e	8c
.	8cc	8e	8c
.	8dd	8d	8B
.	8dd	4.r	8B
.	8ee	.	8c
.	8ff	.	8d
=24	=24	=24	=24
1gg_	4ff	2r	4d
.	4ee	.	4c
.	4..ee	4..cc	4r
.	.	.	4c
.	16ff	16dd	.
=25	=25	=25	=25
1gg_	8dd	8b	8f
.	8dd	8b	8f
.	8ee	8cc#	8e
.	8ee	8cc#	8e
.	8.ff	8.dd	8d
.	.	.	8c
.	32gg	32ee	.
.	32aa	32ff	.
.	16aa	16ff	8B
.	16gg	16ee	.
.	16gg	16ee	8B
.	16ff	16dd	.
=26	=26	=26	=26
2gg	4ff	4dd	4c
.	4ee	4cc	4C
4..ccc	2cc	[2g	2e
16ddd	.	.	.
=27	=27	=27	=27
8bb	8dd	8g]	8f
4r	4r	4r	4r
16.ccc	8cc	4g	8e
32ddd	.	.	.
8bb	8dd	.	8f
16.ccc	8cc	4g	8e
32ddd	.	.	.
8bb	8dd	.	8f
16.ccc	8cc	[8g	8e
32ddd	.	.	.
=28	=28	=28	=28
4bb	4dd	4g]	4f
2fff	4b	4a-	4d
.	4dd	2g	4B
4eee	4cc	.	4c
=29	=29	=29	=29
32ddd	8dd	8a	8f
32ccc#	.	.	.
32eee	.	.	.
32ddd	.	.	.
32fff	8r	8r	8r
32eee	.	.	.
32ddd	.	.	.
32ccc#	.	.	.
32ddd	8dd	8a	8f
32ccc#	.	.	.
32eee	.	.	.
32ddd	.	.	.
32fff	8r	8r	8r
32eee	.	.	.
32ddd	.	.	.
32ccc#	.	.	.
32ddd	8dd	8a	8f
32ccc#	.	.	.
32eee	.	.	.
32ddd	.	.	.
32fff	8r	8r	8r
32eee	.	.	.
32ddd	.	.	.
32ccc#	.	.	.
32ddd	8dd	8a	8f
32ccc#	.	.	.
32ddd	.	.	.
32eee	.	.	.
32fff	8r	8r	8r
32ddd	.	.	.
32fff	.	.	.
32ddd	.	.	.
=30	=30	=30	=30
16ccc	8ee	8cc	8g
16ggg	.	.	.
16ggg	8r	8r	8r
16ggg	.	.	.
8ggg	8ee	8cc	8G
32fff	8r	8r	8r
32eee	.	.	.
32ddd	.	.	.
32ccc	.	.	.
2ddd	8b	8f	8G
.	8r	8r	8r
.	8b	8f	8G
.	8r	8r	8r
=31	=31	=31	=31
2..ccc	1ee-	1g	16CC
.	.	.	16EE-
.	.	.	16GG
.	.	.	16C
.	.	.	16E-
.	.	.	16G
.	.	.	16B
.	.	.	16c
.	.	.	16d
.	.	.	16e-
.	.	.	16f
.	.	.	16g
.	.	.	16f
.	.	.	16e-
16bb-	.	.	16d
16aa	.	.	16c
=32	=32	=32	=32
[2.ff#	1a	1cc	16d
.	.	.	16DD
.	.	.	16FF#
.	.	.	16AA
.	.	.	16C
.	.	.	16D
.	.	.	16F#
.	.	.	16A
.	.	.	16B
.	.	.	16c
.	.	.	16d
.	.	.	16e-
16ff#]	.	.	16d
16ff#	.	.	16c
16gg	.	.	16B-
16aa	.	.	16A
=33	=33	=33	=33
[2.bb-	1dd	1g	16G
.	.	.	16GG
.	.	.	16BB-
.	.	.	16D
.	.	.	16F#
.	.	.	16G
.	.	.	16A
.	.	.	16B-
.	.	.	16B
.	.	.	16c
.	.	.	16c#
.	.	.	16d
16bb-]	.	.	16c
16bb-	.	.	16B-
16ccc	.	.	16A
16ddd	.	.	16G
=34	=34	=34	=34
[2.ee	2..b-	2g	16CC
.	.	.	16EE
.	.	.	16GG
.	.	.	16C
.	.	.	16E
.	.	.	16G
.	.	.	16B-
.	.	.	16c
.	.	2c	16e
.	.	.	16f
.	.	.	16g
.	.	.	16f
16ee]	.	.	16e
16ee	.	.	16d
16ff	8g	.	16c
16gg	.	.	16B-
=35	=35	=35	=35
2ff	2a	2c	16A
.	.	.	16CC
.	.	.	16FF
.	.	.	16AA
.	.	.	16C
.	.	.	16F
.	.	.	16A
.	.	.	16c
2b	4f	4d	16r
.	.	.	16DD
.	.	.	16FF
.	.	.	16BB
.	4r	4r	8D
.	.	.	8r
=36	=36	=36	=36
2.cc	2.e	2.c	2.C
16dd-	4r	4r	4r
16dd	.	.	.
16ee-	.	.	.
16ee	.	.	.
=37	=37	=37	=37
2.ff	8c	8A	8F
.	8r	8r	8r
.	8c	8A	8F
.	8r	8r	8r
.	8c	8A	8F
.	8r	8r	8r
8.gg	8e	8B-	8F
.	8r	8r	8r
16aa	.	.	.
=38	=38	=38	=38
4ff	8f	8A	8F
.	8r	8r	8r
4r	8c	8A	8F
.	8r	8r	8r
32r	8A	8F	8F
32A	.	.	.
32B-	.	.	.
32c	.	.	.
32d	4.r	4.r	4.r
32e	.	.	.
32f	.	.	.
32g	.	.	.
32a	.	.	.
32b-	.	.	.
32cc	.	.	.
32dd	.	.	.
32ee	.	.	.
32ff	.	.	.
32gg	.	.	.
64aa	.	.	.
64bb-	.	.	.
=39	=39	=39	=39
[2ccc	4r	4r	4r
.	8c	8A	8F
.	8r	8r	8r
8ccc]	8f	8d	8F
8bb	8r	8r	8r
8.bb-	8g	8e	8F
.	8r	8r	8r
16ccc	.	.	.
=40	=40	=40	=40
4aa	8a	8f	8F
.	8r	8r	8r
4.r	8c	8A	8F
.	8r	8r	8r
.	8A	8F	8F
8ff	4.r	4.r	4.r
8aa	.	.	.
8ccc	.	.	.
=41	=41	=41	=41
[2eee-	8f	8c	8A
.	8r	8r	8r
.	8f	8c	8A
.	8r	8r	8r
16eee-]	8f	8c	8A
16ddd	.	.	.
16ccc	8r	8r	8r
16bb-	.	.	.
16aa	8f	8c	8A
16gg	.	.	.
16ff	8r	8r	8r
16ee-	.	.	.
=42	=42	=42	=42
16ee-	8f	8d	8B-
16dd	.	.	.
16cc#	8r	8r	8r
16dd	.	.	.
[4ddd	8f#	8d	8B-
.	8r	8r	8r
16ccc]	8g	8d	8B-
16ccc	.	.	.
16bb-	8r	8r	8r
16aa	.	.	.
16aa	8g	8d	8B
16gg	.	.	.
16aa	8r	8r	8r
16ff	.	.	.
=43	=43	=43	=43
[1ccc	4g	4e	4c
.	4r	4C	4r
.	4..ff	4r	4..a
.	.	4cc	.
.	16gg	.	16b-
=44	=44	=44	=44
1ccc_	8ee	8b-	8g
.	8ee	8b-	8g
.	8ff	8a	8f
.	8ff	8a	8f
.	8gg	8g	8e
.	8gg	4.r	8e
.	8aa	.	8f
.	8bb-	.	8g
=45	=45	=45	=45
1ccc_	4bb-	2r	4g
.	4aa	.	4f
.	4..aa	4..f	4r
.	.	.	4F
.	16bb-	16g	.
=46	=46	=46	=46
1ccc_	8gg	8e	8B-
.	8gg	8e	8B-
.	8aa	8f#	8A
.	8aa	8f#	8A
.	8.bb-	8.g	8G
.	.	.	8F
.	32ccc	32a	.
.	32ddd	32b-	.
.	16ddd	16b-	8E
.	16ccc	16a	.
.	16ccc	16a	8E
.	16bb-	16g	.
=47	=47	=47	=47
2ccc	4bb-	4g	4F
.	4aa	4f	4F
4..ccc	8a	8f	8E-
.	8r	8r	8r
.	8a	8f	8E-
.	8r	8r	8r
16ddd	.	.	.
=48	=48	=48	=48
8bb-	8b-	8f	8D
6fff	8r	8r	8r
.	8dd	8f	8BB-
24eee-	.	.	.
24ddd	.	.	.
24ccc	8r	8r	8r
24bb-	.	.	.
24aa	.	.	.
24gg	8dd	8g	8B-
24ff#	.	.	.
24aa	.	.	.
24gg	4.r	4.r	4.r
24bb-	.	.	.
24aa	.	.	.
24ccc	.	.	.
24bb-	.	.	.
24ccc#	.	.	.
24ddd	.	.	.
24bb-	.	.	.
24gg	.	.	.
=49	=49	=49	=49
24ff	4g	4c	4B-
24ee	.	.	.
24ddd	.	.	.
24ccc	.	.	.
24bb-	.	.	.
24aa	.	.	.
24gg	4r	4r	4r
24ff	.	.	.
24ee	.	.	.
24gg	.	.	.
24bb-	.	.	.
24ddd	.	.	.
24ccc	4f	4c	4A
24bb-	.	.	.
24aa	.	.	.
24gg	.	.	.
24ff	.	.	.
24ee	.	.	.
24gg	4r	4r	4r
24ff	.	.	.
24aa	.	.	.
24gg	.	.	.
24bb-	.	.	.
24aa	.	.	.
=50	=50	=50	=50
24ccc	4b-	4c	4E
24bb-	.	.	.
24aa	.	.	.
24gg	.	.	.
24bb-	.	.	.
24aa	.	.	.
24gg	4r	4r	4r
24ff	.	.	.
24ee	.	.	.
24dd	.	.	.
24cc	.	.	.
24b-	.	.	.
24a	4a	4c	4F
24cc	.	.	.
24b-	.	.	.
24dd	.	.	.
24cc	.	.	.
24ff	.	.	.
24ee	4r	4r	4r
24gg	.	.	.
24ff	.	.	.
24aa	.	.	.
24ff	.	.	.
24cc	.	.	.
=51	=51	=51	=51
24dd	8g	8d	8BB-
24f#	.	.	.
24g	.	.	.
24a	8r	8r	8r
24b-	.	.	.
24f#	.	.	.
24g	8g	8d	8BB-
24a	.	.	.
24b-	.	.	.
24cc#	8r	8r	8r
24dd	.	.	.
24a	.	.	.
24b-	8g	8d	8BB-
24ff#	.	.	.
24gg	.	.	.
24aa	8r	8r	8r
24bb-	.	.	.
24ff#	.	.	.
24gg	8g	8d	8BB-
24bb-	.	.	.
24ff#	.	.	.
24gg	8r	8r	8r
24bb-	.	.	.
24gg	.	.	.
=52	=52	=52	=52
24ff	8a	8f	8C
24ccc	.	.	.
24ccc	.	.	.
24ccc	8r	8r	8r
24bb	.	.	.
24bb-	.	.	.
24aa	8a	8f	8C
24fff	.	.	.
24fff	.	.	.
24fff	8r	8r	8r
24ccc	.	.	.
24aa	.	.	.
2gg	8e	8c	8C
.	8r	8r	8r
.	8e	8c	8C
.	8r	8r	8r
=53	=53	=53	=53
24ff	2f	2B	2D
24aa	.	.	.
24gg	.	.	.
24ff	.	.	.
24ee	.	.	.
24dd	.	.	.
24cc	.	.	.
24b	.	.	.
24a	.	.	.
24g	.	.	.
24a	.	.	.
24f	.	.	.
24e	[2g	[2B-	[2C
24g	.	.	.
24b-	.	.	.
24cc	.	.	.
24ee	.	.	.
24gg	.	.	.
24bb-	.	.	.
24gg	.	.	.
24ee	.	.	.
24cc	.	.	.
24b-	.	.	.
24g	.	.	.
=54	=54	=54	=54
4e	8g]	8B-]	8C]
.	4.r	4.r	4.r
4r	.	.	.
4..b-	2e	2g	4c
.	.	.	4c#
16cc	.	.	.
=55	=55	=55	=55
4a	4f	4f	4d
4r	4r	4r	4r
[4g	4.d	4.B-	4.BB-
16g]	.	.	.
16g	.	.	.
16b-	8r	8r	8r
32r	.	.	.
32dd	.	.	.
=56	=56	=56	=56
4f	4A	4A	4C
4r	4r	4r	4r
4g	4B-	4E	4C
8.r	8.r	8.r	8.r
16f	16A	16F	16D
=57	=57	=57	=57
4f	4A	4F	4D
4r	4r	4r	4r
4..b-	4f	4f	4d-
.	4e	4g	4c
16cc	.	.	.
=58	=58	=58	=58
4a	4f	4f	4F
4r	4r	4r	4r
24f#	4.d	4.B-	4.BB-
24g	.	.	.
24a-	.	.	.
24a	.	.	.
24b-	.	.	.
24b	.	.	.
24cc	.	.	.
24cc#	.	.	.
24ee	.	.	.
24dd	8r	8r	8r
24b-	.	.	.
24g	.	.	.
=59	=59	=59	=59
4f	4A	4A	4C
4r	4r	4r	4r
4g	4B-	4E	4C
8.r	8.r	8.r	8.r
16f	16A	16F	16FF
=60	=60	=60	=60
4f	4A	4F	4FF
2.r	2.r	2.r	2.r
==	==	==	==
*-	*-	*-	*-
!!!RWG1: This file contains only pitch and duration data.
!!!RWG2: Transposing instruments are not transposed.
!!!RWG3: Spines may have incompatible meters.
!!!RWG4: Durations of rests and tied notes may be interpreted.
!!!RWG: Key is interpreted using the Humdrum key tool.
!!!GTL: 6 Quartetti ("Prussian")
!!!AFT: stage1
!!!END: 1997/04/15
!!format changes:
!!content changes:
!!public access: complete
!!!KEY: 3514705372
!!!EMD: Converted from MuseData to Humdrum Dec 16, 2000, by Andreas Kornstaedt using muse2kern.
